resources/light/import.svg

<?xml version="1.0" encoding="UTF-8" standalone="no"?>
<svg
   xmlns:dc="http://purl.org/dc/elements/1.1/"
   xmlns:cc="http://creativecommons.org/ns#"
   xmlns:rdf="http://www.w3.org/1999/02/22-rdf-syntax-ns#"
   xmlns:svg="http://www.w3.org/2000/svg"
   xmlns="http://www.w3.org/2000/svg"
   id="svg4"
   version="1.1"
   fill="currentColor"
   height="16"
   width="16">
  <metadata
     id="metadata10">
    <rdf:RDF>
      <cc:Work
         rdf:about="">
        <dc:format>image/svg+xml</dc:format>
        <dc:type
           rdf:resource="http://purl.org/dc/dcmitype/StillImage" />
        <dc:title></dc:title>
      </cc:Work>
    </rdf:RDF>
  </metadata>
  <defs
     id="defs8" />
  <path
     id="path2"
     d="M 3.5 1 L 3 1.5 L 3 13.5 L 3.5 14 L 13.5 14 L 14 13.5 L 14 11.246094 L 13 11.246094 L 13 13 L 4 13 L 4 2 L 9 2 L 9 6 L 13 6 L 13 8.0507812 L 14 8.0507812 L 14 5 L 13.900391 4.5996094 L 10.5 1.0996094 L 10.199219 1 L 9.6367188 1 L 3.5 1 z M 10 2 L 12.900391 5 L 10 5 L 10 2 z "
     style="fill:#424242;fill-opacity:1" />
  <path
     id="path2-3"
     d="m 12.431853,8.6480238 v -2 L 8.6556713,9.4801606 c -0.1164958,0.087372 -0.1065103,0.2558436 0.00366,0.3384713 l 3.7725217,2.8293921 v -2 h 2 V 8.6480238 Z"
     style="fill:#424242" />
</svg>

<svg xmlns="http://www.w3.org/2000/svg" height="16" width="16">
   <path d="M3.5 1l-.5.5v12l.5.5h10l.5-.5v-2.254h-1V13H4V2h5v4h4v2.05h1V5l-.1-.4-3.4-3.5-.3-.1H3.5zM10 2l2.9 3H10V2z" fill="#424242"/><path d="M12.432 8.648v-2L8.656 9.48a.211.211 0 00.003.339l3.773 2.829v-2h2v-2z" fill="#424242"/>
</svg>
